icons/haxe-light.svg

<svg xmlns="http://www.w3.org/2000/svg" width="256" height="256" fill="none" viewBox="0 0 256 256"><rect width="256" height="256" fill="#F4F2ED" rx="60"/><path fill="#FBC707" d="M128 60.5008L76.7392 54.8236L38 38H82.9984L128 60.5038"/><path fill="#FBC707" d="M128 60.5008L180.435 55.9975L218 38H172.998L128 60.5038"/><path fill="#F68712" d="M128 195.502L176.913 197.263L218 218.003H172.998L128 195.498"/><path fill="#F25C19" d="M128 195.502H78.6957L38 218.003H82.9984L128 195.498"/><path fill="#FFF200" d="M60.4992 128.002V175.349L38 218.003V173.003L60.4992 128.001"/><path fill="#FFF200" d="M60.4992 128.002L56.7825 81.0418L38 38V82.9995L60.4992 128.001"/><path fill="#F1471D" d="M195.497 128.002L200.391 78.6939L218 38V82.9995L195.497 128.001"/><path fill="#F1471D" d="M195.497 128.002L199.609 180.828L218 218.003V173.003L195.497 128.001"/><path fill="#FAB20B" d="M38 38L128 60.5008L113.522 117.826L60.4992 128.002L38 38.0048"/><path fill="#F47216" d="M218 38L195.497 128.002L135.043 117.04L128 60.498L218 38.0048"/><path fill="#F25C19" d="M218 218.003L128 195.502L138.174 135.831L195.497 128.007L218 217.997"/><path fill="#F89C0E" d="M38 218.003L60.4992 128.002L114.696 140.131L128 195.502L38 217.997"/><path fill="#F68712" d="M128 60.5008L60.4993 128.002L128 195.502L195.497 128.002L128 60.5038"/></svg>

<svg xmlns="http://www.w3.org/2000/svg" width="256" height="256" fill="none"><rect width="256" height="256" fill="#F4F2ED" rx="60"/><path fill="#FBC707" d="m128 60.5-51.26-5.676L38 38h44.998L128 60.504m0-.004 52.435-4.502L218 38h-45.002L128 60.504"/><path fill="#F68712" d="m128 195.502 48.913 1.761L218 218.003h-45.002L128 195.498"/><path fill="#F25C19" d="M128 195.502H78.696L38 218.003h44.998L128 195.498"/><path fill="#FFF200" d="M60.5 128.002v47.347L38 218.003v-45l22.5-45.002"/><path fill="#FFF200" d="m60.5 128.002-3.718-46.96L38 38v45l22.5 45"/><path fill="#F1471D" d="m195.497 128.002 4.894-49.308L218 38v45l-22.503 45"/><path fill="#F1471D" d="m195.497 128.002 4.112 52.826L218 218.003v-45l-22.503-45.002"/><path fill="#FAB20B" d="m38 38 90 22.5-14.478 57.326-53.023 10.176L38 38.005"/><path fill="#F47216" d="m218 38-22.503 90.002-60.454-10.962L128 60.498l90-22.493"/><path fill="#F25C19" d="m218 218.003-90-22.501 10.174-59.671 57.323-7.824L218 217.997"/><path fill="#F89C0E" d="m38 218.003 22.5-90.001 54.196 12.129L128 195.502l-90 22.495"/><path fill="#F68712" d="m128 60.5-67.5 67.502 67.5 67.5 67.497-67.5L128 60.504"/></svg>
